static/images/logos/trusted-by/decathlon.svg

<svg xmlns="http://www.w3.org/2000/svg" width="127" height="32" viewBox="0 0 127 32" fill="none">
    <g clip-path="url(#clip0_1895_40432)">
        <path fill-rule="evenodd" clip-rule="evenodd" d="M-0.0976562 31.269V-0.0234375H126.406V31.3539L-0.0976562 31.269ZM43.3972 17.9467L50.4817 7.48282H50.4818H55.1288V23.9089H50.8935L50.8646 21.4367H45.9845C44.4552 22.9787 42.2507 23.9089 40.0464 23.9089C35.4881 23.9089 31.7544 20.2177 31.7544 15.7086C31.7544 11.1728 35.9286 7.42188 40.4855 7.42188C42.9266 7.42188 45.367 8.50057 47.0128 10.1857L44.8969 13.3842C43.8383 12.3075 42.2803 11.6675 40.751 11.6675C40.5452 11.6675 40.2502 11.6983 40.0303 11.7264C37.8118 11.7264 35.9883 13.5286 35.9883 15.7393C35.9883 17.918 37.8118 19.7234 40.0149 19.7234C41.3677 19.7234 42.6603 19.0541 43.3972 17.9467ZM50.8646 14.6064L48.5435 17.8309H48.5436H50.8935L50.8646 14.6064ZM59.009 23.9088H63.243L63.2431 11.3184H66.5339V7.48257L55.7165 7.50995V11.3182H59.009V23.9088ZM80.6474 7.48282H80.6475L80.6474 7.48244V7.48282ZM80.6474 7.48282L76.4137 7.48383L76.3842 13.6166H71.3854L71.3538 7.48244H67.1234V23.9086H71.3853V17.4242H76.4136V23.9086H80.6474V7.48282ZM114.575 15.1267V7.48282H114.575H118.811L118.805 23.9089H114.955L109.166 15.9151V23.9089H104.901L104.872 17.9467C103.844 21.4367 100.579 23.9089 96.8752 23.9089C94.7585 23.9089 92.642 23.0364 91.0838 21.6106V23.9089H81.2211V7.48282H85.5354V19.9255H89.7296C89.025 18.6442 88.5845 17.1651 88.5845 15.7086C88.5845 11.1728 92.3187 7.48282 96.875 7.48282C100.579 7.48282 103.902 10.0112 104.872 13.5005L104.901 7.50957L108.754 7.48282L114.575 15.1267ZM92.6421 15.7086C92.6421 18.0363 94.5528 19.8967 96.8752 19.8967C99.2284 19.8967 101.139 18.0363 101.139 15.7086C101.139 13.4129 99.2284 11.5238 96.8752 11.5238C94.5528 11.5238 92.6421 13.4129 92.6421 15.7086ZM26.6342 17.6267V19.9257H26.6345H31.6339L31.6425 23.9085H21.9909V18.298C20.9914 21.3514 18.1091 23.6189 14.8467 23.9085H7.49609V7.48307L14.8166 7.50982C18.1091 7.80066 20.9914 10.0697 21.9909 13.151V7.50982L31.6339 7.48307L31.6425 11.524H26.6342V13.6164H31.1698L31.1778 17.6267H26.6342ZM14.8466 20.1283C15.9931 20.0989 17.0523 19.3159 17.3159 18.2097H17.3158C17.5815 17.4247 17.7282 16.5541 17.7282 15.7088C17.7282 14.8964 17.5814 14.0244 17.3159 13.2681C17.0523 12.1359 15.9931 11.3181 14.8467 11.3181H12.1421V20.1283H14.8466Z" fill="#ADADB0"/>
    </g>
    <defs>
        <clipPath id="clip0_1895_40432">
            <rect width="126.308" height="31.394" fill="white"/>
        </clipPath>
    </defs>
</svg>

<svg xmlns="http://www.w3.org/2000/svg" width="127" height="32" fill="none"><g clip-path="url(#a)"><path fill="#ADADB0" fill-rule="evenodd" d="M-.098 31.269V-.023h126.504v31.377L-.098 31.269Zm43.495-13.322 7.085-10.464h4.647v16.426h-4.235l-.03-2.472h-4.88a8.51 8.51 0 0 1-5.938 2.472c-4.558 0-8.292-3.691-8.292-8.2 0-4.536 4.175-8.287 8.732-8.287 2.44 0 4.881 1.079 6.527 2.764l-2.116 3.198c-1.059-1.077-2.617-1.716-4.146-1.716-.206 0-.5.03-.72.058-2.22 0-4.043 1.803-4.043 4.013 0 2.179 1.824 3.984 4.027 3.984 1.353 0 2.645-.669 3.382-1.776Zm7.468-3.34-2.322 3.224h2.35l-.028-3.225Zm8.144 9.302h4.234v-12.59h3.29V7.482l-10.816.027v3.808h3.292v12.59ZM80.647 7.483Zm0 0h-4.233l-.03 6.134h-4.999l-.031-6.135h-4.23V23.91h4.261v-6.485h5.029v6.485h4.233V7.483Zm33.928 7.644V7.483h4.236l-.006 16.426h-3.85l-5.789-7.994v7.994h-4.265l-.029-5.962c-1.028 3.49-4.293 5.962-7.997 5.962-2.117 0-4.233-.873-5.791-2.298v2.298H81.22V7.483h4.314v12.442h4.195c-.705-1.28-1.145-2.76-1.145-4.216 0-4.536 3.734-8.226 8.29-8.226 3.704 0 7.027 2.528 7.997 6.018l.029-5.991 3.853-.027 5.821 7.644Zm-21.933.582c0 2.327 1.91 4.188 4.233 4.188 2.353 0 4.264-1.86 4.264-4.188 0-2.296-1.91-4.185-4.264-4.185-2.322 0-4.233 1.889-4.233 4.185Zm-66.008 1.918v2.299h5l.008 3.983h-9.651v-5.611c-1 3.053-3.882 5.32-7.144 5.61h-7.35V7.483l7.32.027c3.292.29 6.174 2.56 7.174 5.641V7.51l9.643-.027.008 4.041h-5.008v2.092h4.536l.008 4.01h-4.544Zm-11.787 2.501c1.146-.03 2.205-.812 2.469-1.918a7.925 7.925 0 0 0 .412-2.501c0-.813-.147-1.685-.412-2.44-.264-1.133-1.323-1.95-2.47-1.95h-2.704v8.81h2.705Z" clip-rule="evenodd"/></g><defs><clipPath id="a"><path fill="#fff" d="M0 0h126.308v31.394H0z"/></clipPath></defs></svg>
